X:1
T:Title
%%score { ( 1 3 ) | ( 2 4 ) }
L:1/8
Q:1/4=100
M:4/4
K:Bb
V:1 treble nm="Grand Piano"
V:3 treble 
V:2 bass 
V:4 bass 
V:1
 E2 EF [EG]2 FE | B8 | G2 GG [A,EG]2 .[A,F]2 | [B,DF]6 [DB][DB] | [EBe]2 [EBe]2 [EAd]2 [EAc]2 | %5
w: E.~H.~Swinstead * * * * *|||||
[M:9/8] [DB]2 [_A,DG]- [A,DG] [CF]2 E3 | [CF_A]2 [CEA] [EA] [CEF]2- [CEF][DF][DF] | %7
w: ||
[M:4/4] [G,E]8 |] %8
w: |
V:2
 [E,G,B,]2 [E,G,B,]2 [C,C]2 [C,C]2 | G,2 F,2 E,2 F,2 | [E,B,E]2 EE C,2 z E | B,,6 B,_A, | %4
 G,2 G,2 ^F,2 F,2 |[M:9/8] F,2 B,,- B,, z z C3 | .F,,3 C B,,2- B,,[B,,B,][B,,B,] | %7
[M:4/4] [E,,E,]8 |] %8
V:3
 x8 | E2 D2 C2 D2 | x8 | x8 | x8 |[M:9/8] x9 | x9 |[M:4/4] x8 |] %8
V:4
 x8 | B,,8 | z2 [E,B,]2 z2 F,2 | x8 | x8 |[M:9/8] z3 z [C,G,]2- [C,G,]3 | z2 F,,- F,, z z z3 | %7
[M:4/4] x8 |] %8

